X:1
T:Title
%%score { ( 1 3 ) | ( 2 4 ) }
L:1/8
Q:1/4=114
M:3/4
K:Ab
V:1 treble nm="Grand Piano"
V:3 treble 
V:2 bass 
V:4 bass 
V:1
 [FA]2 [=EG]2 [_E_G]2 | F4 z2 | D6 | F6 | _G2 A2 B2 | d4 B2 | A6- | A4 z2 | [C_G]2 [CF]2 [CG]2 | %9
w: F.~J.~McCuddy * *|||||||||
 [CE]4 [EA]2 | [FA]6 | F6 | E2 G2 A2 | B4 c2 | [CA-]4 A2- | A4 z2 | [A,FA]2 [B,=EG]2 [C_E_G]2 | %17
w: ||||||||
 F4[K:bass] z2 | [F,D]6 | [A,DF]6 | [=A,EF]2[K:bass] [F,A,C]2 [F,B,D]2 | [F,=A,E]4 [F,B,D]2 | %22
w: |||||
 [B,DF]6- | [B,DF]4 z2 | [A,=DF]2 [G,DE]2 [A,DF]2 | [B,=D_G]4 [A,DF]2 | [G,DE]6 | [Ec]6 | %28
w: ||||||
 [CA]2 [C_G]2[K:bass] [_G,A,C]2 | [A,CF]4 [_G,CE]2 | [F,D]6- | [F,D]4 z2 | %32
w: ||||
 [DFA]2 [B,=EG]2 [A,FA]2 | [DFB]4 [A,DF]2 | [A,FA]4 [B,=EG]2 | [CE_G]6 | [_GB]2 [G=A]2 [GB]2 | %37
w: |||||
 [_Gc]4 [EG]2 | [FB]4 [F=A]2 | [FA]6 | [Fd]2 [Fc]2 [Fd]2 | [Fe]4 [Fd]2 | [_Gd]4 [Gc]2 | _G6 | %44
w: |||||||
 B2 =A2 B2 | d4 c2 | [FB]4 [FA]2 | F6 | F2 =E2 F2 | [FB]4 [A,FA]2 | [A,FA]4 [B,=EG]2 | [CE_G]6 | %52
w: ||||||||
 [E_G]2 [=DF]2 [EG]2 | [_Gc]4 [GB]2 | [FB]4 [=EG]2 | [FA]6 | [FA]2 [=EG]2 [FA]2 | [Fe]4 [Fd]2 | %58
w: ||||||
 [B,DE]4 [B,D_G]2 | [B,EB]6 | [Ec]2 [_GB]2 [GA]2 | [C_Ge]4 [Fd]2 | [Fd]6- | [Fd]4 z2 |] %64
w: ||||||
V:2
 [D,A,]2 [D,B,]2 [D,C]2 | D2 z2 z2 | [D,F,]6 | [D,A,D]6 | [_G,B,D]2 [G,_CD]2 [G,D_G]2 | %5
 [_G,B,_G]4 [G,D]2 | [D,F,D]6- | [D,F,D]4 z2 | [A,,E,]2 [A,,=D,]2 [A,,E,]2 | [A,,A,]4 [C,A,]2 | %10
 [D,A,]6 | [D,A,D]6 | [E,A,C]2 [E,B,D]2 [E,A,C]2 | [E,G,D]4 [E,G,E]2 | z2 E,2 F,2 | _G,4 z2 | %16
 D,2 D,2 D,2 | z2 A,2 D,2 | D,6 | D,6 | C,2 E,2 D,2 | C,4 B,,2 | B,,6- | B,,4 z2 | B,,2 B,,2 B,,2 | %25
 B,,4 B,,2 | E,6 | [E,G,]6 | [A,,_G,]2 [A,,E,]2 A,,2 | A,,4 A,,2 | D,6- | D,4 z2 | D,2 D,2 D,2 | %33
 D,4 D,2 | A,,4 A,,2 | A,,6 | [A,,A,]2 [A,,A,]2 [A,,A,]2 | [A,,A,]4 [C,A,]2 | [D,A,]4 [D,A,]2 | %39
 [D,A,]6 | [D,A,]2 [D,A,]2 [D,A,]2 | [D,A,]4 [D,A,]2 | [E,A,]4 [E,A,]2 | [A,CE]6 | %44
 [A,C_G]2 [A,CG]2 [A,CG]2 | [A,_G]4 [A,G]2 | [D,A,]4 [D,D]2 | [D,A,D]6 | %48
 [D,A,D]2 [D,G,D]2 [D,A,D]2 | [D,A,]4 D,2 | A,,4 A,,2 | A,,6 | [A,,A,]2 [A,,A,]2 [A,,A,]2 | %53
 [A,,A,]4 [C,A,]2 | [D,A,]4 [D,B,]2 | [D,A,]6 | [D,D]2 [D,B,]2 [D,A,]2 | [D,A,]4 [D,A,]2 | %58
 _G,,4 G,,2 | G,,6 | [A,,A,]2 [A,,A,]2 [A,,A,]2 | [A,,A,]4 [D,A,]2 | [D,A,]6- | [D,A,]4 z2 |] %64
V:3
 x6 | z2 A,2 E2 | x6 | x6 | x6 | x6 | x6 | x6 | x6 | x6 | x6 | x6 | x6 | x6 | A,2 z2 D2 | E4 z2 | %16
 x6 | D2 z2[K:bass] [_G,DE]2 | x6 | x6 | x2[K:bass] x4 | x6 | x6 | x6 | x6 | x6 | x6 | x6 | %28
 x4[K:bass] x2 | x6 | x6 | x6 | x6 | x6 | x6 | x6 | x6 | x6 | x6 | x6 | x6 | x6 | x6 | x6 | x6 | %45
 x6 | x6 | x6 | x6 | x6 | x6 | x6 | x6 | x6 | x6 | x6 | x6 | x6 | x6 | x6 | x6 | x6 | x6 | x6 |] %64
V:4
 x6 | D,4 [D,_G,D]2 | x6 | x6 | x6 | x6 | x6 | x6 | x6 | x6 | x6 | x6 | x6 | x6 | A,,6- | A,,4 z2 | %16
 x6 | D,4 z2 | x6 | x6 | x6 | x6 | x6 | x6 | x6 | x6 | x6 | x6 | x6 | x6 | x6 | x6 | x6 | x6 | x6 | %35
 x6 | x6 | x6 | x6 | x6 | x6 | x6 | x6 | x6 | x6 | x6 | x6 | x6 | x6 | x6 | x6 | x6 | x6 | x6 | %54
 x6 | x6 | x6 | x6 | x6 | x6 | x6 | x6 | x6 | x6 |] %64

